src/icons/ic_cog_red.svg

<svg id="Layer_1" data-name="Layer 1" xmlns="http://www.w3.org/2000/svg" width="40" height="40" viewBox="0 0 40 40">
  <defs>
    <style>
      .cls-1 {
        fill: #d4345c;
      }
    </style>
  </defs>
  <g>
    <circle class="cls-1" cx="19.98571" cy="19.99838" r="3.54172"/>
    <path class="cls-1" d="M22.82883,33.28812l-2.30957-3.16065a10.06051,10.06051,0,0,1-1.04395-.00195l-2.29785,3.16113-.83691-.23437a13.55788,13.55788,0,0,1-5.81348-3.35206L9.907,29.09427l1.582-3.58008a10.05149,10.05149,0,0,1-.5205-.90576l-3.88575-.40918-.21582-.84278a13.56663,13.56663,0,0,1-.0039-6.71093l.21582-.83936,3.877-.418a9.698,9.698,0,0,1,.52441-.90576L9.89035,10.91214l.62207-.60791A13.564,13.564,0,0,1,16.322,6.94583l.835-.23389.51074.69971c0,.00049,1.15918,1.58594,1.79883,2.46094a9.30717,9.30717,0,0,1,1.044.00146l2.29785-3.16113.83691.23438a13.56687,13.56687,0,0,1,5.81446,3.35205l.62011.606-1.57714,3.56836a9.75012,9.75012,0,0,1,.52832.918l3.88671.40869.21582.84278a13.578,13.578,0,0,1,.00391,6.71093l-.21484.83985-.86231.09277s-1.95117.21045-3.02929.32715a9.88078,9.88078,0,0,1-.52442.90332l1.58985,3.5708-.62207.60791a13.5765,13.5765,0,0,1-5.81055,3.3584Zm-1.1416-5.79981,2.11621,2.896a11.07679,11.07679,0,0,0,3.28711-1.90137l-1.459-3.27881.45313-.59033a7.3582,7.3582,0,0,0,.875-1.459c.09179-.84179.68164-.90576,2.96777-1.15234l.9668-.10449a11.06623,11.06623,0,0,0-.00293-3.79688L27.321,17.72562l-.28417-.689a7.3525,7.3525,0,0,0-.957-1.66455l-.44726-.5874,1.44531-3.271a11.08228,11.08228,0,0,0-3.29-1.896l-2.11035,2.9038-.73828-.09814A7.45705,7.45705,0,0,0,19.03,12.419l-.15625.00977c-.58887,0-.63184,0-2.69141-2.813a11.08259,11.08259,0,0,0-3.28613,1.90088l1.459,3.27881-.45312.58984a7.39276,7.39276,0,0,0-.958,1.65284l-.28515.68066-3.55372.3833a11.06321,11.06321,0,0,0,.00391,3.79639l3.56836.376.28418.688a7.43476,7.43476,0,0,0,.95117,1.65625l.44629.58692-1.45019,3.28076A11.08667,11.08667,0,0,0,16.198,30.38187l2.11035-2.90381.73828.09814a7.46494,7.46494,0,0,0,1.91016.0044Z"/>
  </g>
</svg>

<svg width="40" height="40" viewBox="0 0 40 40" fill="none" xmlns="http://www.w3.org/2000/svg">
<path d="M19.9857 23.5401C21.9417 23.5401 23.5274 21.9544 23.5274 19.9984C23.5274 18.0423 21.9417 16.4567 19.9857 16.4567C18.0297 16.4567 16.444 18.0423 16.444 19.9984C16.444 21.9544 18.0297 23.5401 19.9857 23.5401Z" fill="#404040"/>
<path d="M22.8288 33.2881L20.5193 30.1275C20.1715 30.1449 19.823 30.1442 19.4753 30.1255L17.1775 33.2867L16.3406 33.0523C14.1525 32.4397 12.1534 31.2871 10.5271 29.7002L9.90701 29.0943L11.489 25.5142C11.2999 25.2215 11.1262 24.9192 10.9685 24.6084L7.08276 24.1993L6.86694 23.3565C6.30365 21.1551 6.30231 18.8475 6.86304 16.6455L7.07886 15.8062L10.9559 15.3882C11.1142 15.077 11.2893 14.7747 11.4803 14.4824L9.89036 10.9121L10.5124 10.3042C12.1371 8.71585 14.1348 7.56105 16.322 6.94583L17.157 6.71194L17.6677 7.41165C17.6677 7.41165 18.8269 8.99759 19.4666 9.87259C19.8143 9.85355 20.1629 9.85404 20.5106 9.87405L22.8084 6.71292L23.6453 6.9473C25.8336 7.56006 27.833 8.71267 29.4598 10.2994L30.0799 10.9054L28.5028 14.4737C28.6954 14.7699 28.8717 15.0764 29.0311 15.3917L32.9178 15.8004L33.1336 16.6432C33.6964 18.8446 33.6978 21.152 33.1375 23.3541L32.9227 24.194L32.0604 24.2867C32.0604 24.2867 30.1092 24.4972 29.0311 24.6139C28.8723 24.924 28.6973 25.2256 28.5067 25.5172L30.0965 29.088L29.4744 29.6959C27.8492 31.284 25.8513 32.4388 23.6639 33.0543L22.8288 33.2881ZM21.6872 27.4883L23.8034 30.3843C25.0004 29.9445 26.1125 29.3012 27.0906 28.4829L25.6316 25.2041L26.0847 24.6138C26.4318 24.1629 26.7254 23.6733 26.9597 23.1548C27.0515 22.313 27.6413 22.249 29.9275 22.0025L30.8943 21.898C31.112 20.6416 31.111 19.3571 30.8913 18.1011L27.321 17.7256L27.0368 17.0366C26.792 16.4423 26.4702 15.8827 26.0798 15.3721L25.6326 14.7847L27.0779 11.5137C26.0985 10.6971 24.9855 10.0557 23.7879 9.61767L21.6775 12.5215L20.9393 12.4233C20.3057 12.3401 19.664 12.3386 19.03 12.419L18.8738 12.4288C18.2849 12.4288 18.2419 12.4288 16.1824 9.61578C14.9858 10.0557 13.8741 10.6987 12.8962 11.5167L14.3552 14.7955L13.9021 15.3853C13.5126 15.8925 13.1906 16.4481 12.9441 17.0381L12.6589 17.7188L9.10523 18.1021C8.88778 19.3583 8.8891 20.6427 9.10914 21.8985L12.6775 22.2745L12.9617 22.9625C13.2062 23.5532 13.5259 24.1099 13.9128 24.6187L14.3591 25.2057L12.9089 28.4864C13.8882 29.3026 15.0008 29.9439 16.198 30.3819L18.3084 27.4781L19.0466 27.5762C19.6805 27.6595 20.3225 27.6609 20.9568 27.5806L21.6872 27.4883Z" fill="#404040"/>
</svg>
